Sensual-Plasma/Sensual-Dark/icons/kteatime.svg

<?xml version="1.0" encoding="UTF-8" standalone="no"?>
<svg
   xmlns:dc="http://purl.org/dc/elements/1.1/"
   xmlns:cc="http://creativecommons.org/ns#"
   xmlns:rdf="http://www.w3.org/1999/02/22-rdf-syntax-ns#"
   xmlns:svg="http://www.w3.org/2000/svg"
   xmlns="http://www.w3.org/2000/svg"
   xmlns:sodipodi="http://sodipodi.sourceforge.net/DTD/sodipodi-0.dtd"
   xmlns:inkscape="http://www.inkscape.org/namespaces/inkscape"
   width="24"
   height="24"
   id="svg3314"
   version="1.1"
   inkscape:version="1.0.1 (3bc2e813f5, 2020-09-07)"
   sodipodi:docname="kteatime.svg">
  <defs
     id="defs3316" />
  <sodipodi:namedview
     id="base"
     pagecolor="#ffffff"
     bordercolor="#000000"
     borderopacity="1"
     inkscape:pageopacity="1"
     inkscape:pageshadow="2"
     inkscape:zoom="14.609567"
     inkscape:cx="6.9764045"
     inkscape:cy="12.14009"
     inkscape:current-layer="layer2"
     showgrid="false"
     inkscape:grid-bbox="true"
     inkscape:document-units="px"
     borderlayer="true"
     inkscape:window-width="1920"
     inkscape:window-height="1012"
     inkscape:window-x="0"
     inkscape:window-y="0"
     inkscape:window-maximized="1"
     showguides="false"
     inkscape:guide-bbox="true"
     inkscape:lockguides="true"
     inkscape:document-rotation="0">
    <inkscape:grid
       type="xygrid"
       id="grid3045"
       empspacing="5"
       visible="true"
       enabled="true"
       snapvisiblegridlinesonly="true" />
    <sodipodi:guide
       orientation="0,1"
       position="24,20"
       id="guide3086"
       inkscape:locked="true" />
    <sodipodi:guide
       orientation="0,1"
       position="24,4"
       id="guide3088"
       inkscape:locked="true" />
    <sodipodi:guide
       orientation="0,1"
       position="0,12"
       id="guide4128"
       inkscape:locked="true" />
  </sodipodi:namedview>
  <metadata
     id="metadata3319">
    <rdf:RDF>
      <cc:Work
         rdf:about="">
        <dc:format>image/svg+xml</dc:format>
        <dc:type
           rdf:resource="http://purl.org/dc/dcmitype/StillImage" />
        <dc:title>Tilain</dc:title>
      </cc:Work>
    </rdf:RDF>
  </metadata>
  <g
     inkscape:groupmode="layer"
     id="layer2"
     inkscape:label="Ebene#1">
    <g
       id="kteatime"
       transform="translate(0,-8)">
      <rect
         transform="translate(0,8)"
         y="0"
         x="0"
         height="24"
         width="24"
         id="rect3860"
         style="opacity:0;fill:#000000;fill-opacity:1;stroke:none" />
      <path
         style="fill:#ffffff;fill-opacity:0;stroke:none"
         d="m 3,6 c 0,5 1,8 4.75,11 H 3 c -1.1045695,0 -2,0.895431 -2,2 0,1.104569 0.8954305,2 2,2 h 18 c 1.104569,0 2,-0.895431 2,-2 0,-1.104569 -0.895431,-2 -2,-2 h -4.75 c 0.335247,-0.316517 0.648795,-0.652105 0.96875,-1.03125 C 21.471823,15.772264 24,14.316016 24,7 H 20.96875 C 20.994496,6.6677602 21,6.3331271 21,6 Z m 1,1 h 16 c 0,0.3456021 -0.0036,0.6731782 -0.03125,1 H 23 c 0,6.695652 -2.760705,6.987343 -6.5,7 -0.792063,0.765364 -1.636364,1.424242 -2.5,2 H 10 C 7,15 4,12 4,7 Z M 19.84375,9 C 19.485952,11.017429 18.573268,12.652332 17.4375,14 19.409472,13.977215 22,13.65 22,9 Z M 3,18 h 18 c 0.552285,0 1,0.447715 1,1 0,0.552285 -0.447715,1 -1,1 H 3 C 2.4477153,20 2,19.552285 2,19 2,18.447715 2.4477153,18 3,18 Z"
         transform="translate(0,8)"
         id="path3784" />
      <path
         style="fill:#d3dae3;fill-opacity:1;stroke:none"
         d="m 4,7 c 0,5 3,8 6,10 h 4 C 17,15 20,12 20,7 18,7 8,7 4,7 Z"
         transform="translate(0,8)"
         id="rect2996"
         inkscape:connector-curvature="0"
         sodipodi:nodetypes="ccccc" />
      <path
         style="fill:#4e9fac;fill-opacity:1;stroke:none"
         d="m 3,18 c -0.5522847,0 -1,0.447715 -1,1 0,0.552285 0.4477153,1 1,1 h 18 c 0.552285,0 1,-0.447715 1,-1 0,-0.552285 -0.447715,-1 -1,-1 z"
         transform="translate(0,8)"
         id="rect3769" />
      <path
         style="fill:#d3dae3;fill-opacity:1;stroke:none"
         d="m 16,8 v 7 c 4,0 7,0 7,-7 z m 1,1 h 5 c 0,5 -3,5 -5,5 z"
         transform="translate(0,8)"
         id="rect3772"
         inkscape:connector-curvature="0"
         sodipodi:nodetypes="cccccccc" />
    </g>
  </g>
</svg>

<?xml version="1.0" encoding="UTF-8" standalone="no"?>
<svg
   xmlns:dc="http://purl.org/dc/elements/1.1/"
   xmlns:cc="http://creativecommons.org/ns#"
   xmlns:rdf="http://www.w3.org/1999/02/22-rdf-syntax-ns#"
   xmlns:svg="http://www.w3.org/2000/svg"
   xmlns="http://www.w3.org/2000/svg"
   xmlns:sodipodi="http://sodipodi.sourceforge.net/DTD/sodipodi-0.dtd"
   xmlns:inkscape="http://www.inkscape.org/namespaces/inkscape"
   width="24"
   height="24"
   id="svg3314"
   version="1.1"
   inkscape:version="0.92.4 (5da689c313, 2019-01-14)"
   sodipodi:docname="kteatime.svg">
  <defs
     id="defs3316" />
  <sodipodi:namedview
     id="base"
     pagecolor="#ffffff"
     bordercolor="#000000"
     borderopacity="1"
     inkscape:pageopacity="1"
     inkscape:pageshadow="2"
     inkscape:zoom="14.609567"
     inkscape:cx="6.9764045"
     inkscape:cy="12.14009"
     inkscape:current-layer="layer2"
     showgrid="false"
     inkscape:grid-bbox="true"
     inkscape:document-units="px"
     borderlayer="true"
     inkscape:window-width="1920"
     inkscape:window-height="1017"
     inkscape:window-x="0"
     inkscape:window-y="0"
     inkscape:window-maximized="1"
     showguides="false"
     inkscape:guide-bbox="true"
     inkscape:lockguides="true">
    <inkscape:grid
       type="xygrid"
       id="grid3045"
       empspacing="5"
       visible="true"
       enabled="true"
       snapvisiblegridlinesonly="true" />
    <sodipodi:guide
       orientation="0,1"
       position="24,20"
       id="guide3086"
       inkscape:locked="true" />
    <sodipodi:guide
       orientation="0,1"
       position="24,4"
       id="guide3088"
       inkscape:locked="true" />
    <sodipodi:guide
       orientation="0,1"
       position="0,12"
       id="guide4128"
       inkscape:locked="true" />
  </sodipodi:namedview>
  <metadata
     id="metadata3319">
    <rdf:RDF>
      <cc:Work
         rdf:about="">
        <dc:format>image/svg+xml</dc:format>
        <dc:type
           rdf:resource="http://purl.org/dc/dcmitype/StillImage" />
        <dc:title>Tilain</dc:title>
      </cc:Work>
    </rdf:RDF>
  </metadata>
  <g
     inkscape:groupmode="layer"
     id="layer2"
     inkscape:label="Ebene#1">
    <g
       id="kteatime"
       transform="translate(0,-8)">
      <rect
         transform="translate(0,8)"
         y="0"
         x="0"
         height="24"
         width="24"
         id="rect3860"
         style="opacity:0;fill:#000000;fill-opacity:1;stroke:none" />
      <path
         style="fill:#ffffff;fill-opacity:0;stroke:none"
         d="M 3 6 C 3 11 4 14 7.75 17 L 3 17 C 1.8954305 17 1 17.895431 1 19 C 1 20.104569 1.8954305 21 3 21 L 21 21 C 22.104569 21 23 20.104569 23 19 C 23 17.895431 22.104569 17 21 17 L 16.25 17 C 16.585247 16.683483 16.898795 16.347895 17.21875 15.96875 C 21.471823 15.772264 24 14.316016 24 7 L 20.96875 7 C 20.994496 6.6677602 21 6.3331271 21 6 L 3 6 z M 4 7 L 20 7 C 20 7.3456021 19.996425 7.6731782 19.96875 8 L 23 8 C 23 14.695652 20.239295 14.987343 16.5 15 C 15.707937 15.765364 14.863636 16.424242 14 17 L 10 17 C 7 15 4 12 4 7 z M 19.84375 9 C 19.485952 11.017429 18.573268 12.652332 17.4375 14 C 19.409472 13.977215 22 13.65 22 9 L 19.84375 9 z M 3 18 L 21 18 C 21.552285 18 22 18.447715 22 19 C 22 19.552285 21.552285 20 21 20 L 3 20 C 2.4477153 20 2 19.552285 2 19 C 2 18.447715 2.4477153 18 3 18 z "
         transform="translate(0,8)"
         id="path3784" />
      <path
         style="fill:#a1b4ba;fill-opacity:1;stroke:none"
         d="m 4,7 c 0,5 3,8 6,10 l 4,0 C 17,15 20,12 20,7 18,7 8,7 4,7 z"
         transform="translate(0,8)"
         id="rect2996"
         inkscape:connector-curvature="0"
         sodipodi:nodetypes="ccccc" />
      <path
         style="fill:#4e9fac;fill-opacity:1;stroke:none"
         d="M 3 18 C 2.4477153 18 2 18.447715 2 19 C 2 19.552285 2.4477153 20 3 20 L 21 20 C 21.552285 20 22 19.552285 22 19 C 22 18.447715 21.552285 18 21 18 L 3 18 z "
         transform="translate(0,8)"
         id="rect3769" />
      <path
         style="fill:#a1b4ba;fill-opacity:1;stroke:none"
         d="m 16,8 0,7 c 4,0 7,0 7,-7 z m 1,1 5,0 c 0,5 -3,5 -5,5 z"
         transform="translate(0,8)"
         id="rect3772"
         inkscape:connector-curvature="0"
         sodipodi:nodetypes="cccccccc" />
    </g>
  </g>
</svg>
